; G-Code generated by Simplify3D(R) Version 3.1.1
; Mar 22, 2017 at 9:20:19 PM
; Settings Summary
;   processName,Process1
;   applyToModels,apparat_plus_sice
;   profileName,High speed (modified)
;   profileVersion,2017-03-22 19:18:57
;   baseProfile,Default (modified)
;   printMaterial,ABS
;   printQuality,High
;   printExtruders,
;   extruderName,Primary Extruder
;   extruderToolheadNumber,0
;   extruderDiameter,0.4
;   extruderAutoWidth,1
;   extruderWidth,0.48
;   extrusionMultiplier,1
;   extruderUseRetract,1
;   extruderRetractionDistance,10
;   extruderExtraRestartDistance,-0.2
;   extruderRetractionZLift,0
;   extruderRetractionSpeed,4800
;   extruderUseCoasting,1
;   extruderCoastingDistance,0.2
;   extruderUseWipe,0
;   extruderWipeDistance,5
;   primaryExtruder,0
;   layerHeight,0.2
;   topSolidLayers,3
;   bottomSolidLayers,3
;   perimeterOutlines,2
;   printPerimetersInsideOut,1
;   startPointOption,2
;   startPointOriginX,0
;   startPointOriginY,0
;   startPointOriginZ,300
;   sequentialIslands,0
;   spiralVaseMode,0
;   firstLayerHeightPercentage,90
;   firstLayerWidthPercentage,125
;   firstLayerUnderspeed,0.35
;   useRaft,1
;   raftExtruder,0
;   raftLayers,3
;   raftOffset,3
;   raftSeparationDistance,0.14
;   raftInfill,30
;   disableRaftBaseLayers,0
;   useSkirt,0
;   skirtExtruder,0
;   skirtLayers,1
;   skirtOutlines,3
;   skirtOffset,0
;   usePrimePillar,0
;   primePillarExtruder,999
;   primePillarWidth,12
;   primePillarLocation,7
;   primePillarSpeedMultiplier,1
;   useOozeShield,0
;   oozeShieldExtruder,999
;   oozeShieldOffset,2
;   oozeShieldOutlines,1
;   oozeShieldSidewallShape,1
;   oozeShieldSidewallAngle,30
;   oozeShieldSpeedMultiplier,1
;   infillExtruder,0
;   internalInfillPattern,Fast Honeycomb
;   externalInfillPattern,Concentric
;   infillPercentage,20
;   outlineOverlapPercentage,30
;   infillExtrusionWidthPercentage,100
;   minInfillLength,5
;   infillLayerInterval,1
;   infillAngles,0
;   overlapInfillAngles,0
;   generateSupport,0
;   supportExtruder,0
;   supportInfillPercentage,20
;   supportExtraInflation,0
;   denseSupportLayers,0
;   denseSupportInfillPercentage,60
;   supportLayerInterval,1
;   supportHorizontalPartOffset,0.5
;   supportUpperSeparationLayers,1
;   supportLowerSeparationLayers,1
;   supportType,1
;   supportGridSpacing,4
;   maxOverhangAngle,45
;   supportAngles,0
;   temperatureName,Primary Extruder
;   temperatureNumber,0
;   temperatureSetpointCount,1
;   temperatureSetpointLayers,1
;   temperatureSetpointTemperatures,230
;   temperatureStabilizeAtStartup,1
;   temperatureHeatedBed,0
;   temperatureRelayBetweenLayers,0
;   temperatureRelayBetweenLoops,0
;   fanLayers,1,3
;   fanSpeeds,0,50
;   blipFanToFullPower,1
;   adjustSpeedForCooling,1
;   minSpeedLayerTime,15
;   minCoolingSpeedSlowdown,40
;   increaseFanForCooling,1
;   minFanLayerTime,10
;   maxCoolingFanSpeed,100
;   increaseFanForBridging,1
;   bridgingFanSpeed,100
;   use5D,1
;   relativeEdistances,0
;   allowEaxisZeroing,1
;   independentExtruderAxes,0
;   includeM10123,0
;   stickySupport,1
;   applyToolheadOffsets,0
;   gcodeXoffset,0
;   gcodeYoffset,0
;   gcodeZoffset,0
;   overrideMachineDefinition,1
;   machineTypeOverride,0
;   strokeXoverride,300
;   strokeYoverride,300
;   strokeZoverride,300
;   originOffsetXoverride,0
;   originOffsetYoverride,0
;   originOffsetZoverride,0
;   homeXdirOverride,-1
;   homeYdirOverride,-1
;   homeZdirOverride,-1
;   flipXoverride,1
;   flipYoverride,-1
;   flipZoverride,1
;   toolheadOffsets,0,0|0,0|0,0|0,0|0,0|0,0
;   overrideFirmwareConfiguration,0
;   firmwareTypeOverride,RepRap (Marlin/Repetier/Sprinter)
;   GPXconfigOverride,r2
;   baudRateOverride,115200
;   overridePrinterModels,0
;   printerModelsOverride
;   startingGcode,M140 S110,M190 S110,M280 PS10.3,M280 PS3,G32,M500,G1 X100 Y0 F4800,M280 PS10.3,M280 PS3,G30 Z0,M280 PS10.3,G92 Z1.5 E0,G1 Z0.3,G1 X250 E10 F4800,G1 Z2
;   layerChangeGcode,
;   retractionGcode,
;   toolChangeGcode,
;   endingGcode,M104 S0 ; turn off extruder,M140 S0 ; turn off bed,G91,M83,G1 Z10 E-50,M84 ; disable motors
;   exportFileFormat,gcode
;   celebration,0
;   celebrationSong,Random Song
;   postProcessing,
;   defaultSpeed,8000
;   outlineUnderspeed,0.6
;   solidInfillUnderspeed,0.8
;   supportUnderspeed,0.8
;   rapidXYspeed,7800
;   rapidZspeed,2000
;   minBridgingArea,10
;   bridgingExtraInflation,2
;   bridgingExtrusionMultiplier,1
;   bridgingSpeedMultiplier,0.4
;   filamentDiameter,1.75
;   filamentPricePerKg,46
;   filamentDensity,1.25
;   useMinPrintHeight,0
;   minPrintHeight,0
;   useMaxPrintHeight,0
;   maxPrintHeight,0.2
;   useDiaphragm,0
;   diaphragmLayerInterval,20
;   robustSlicing,1
;   mergeAllIntoSolid,0
;   onlyRetractWhenCrossingOutline,1
;   retractBetweenLayers,1
;   useRetractionMinTravel,0
;   retractionMinTravel,3
;   retractWhileWiping,0
;   onlyWipeOutlines,1
;   avoidCrossingOutline,1
;   maxMovementDetourFactor,3
;   toolChangeRetractionDistance,12
;   toolChangeExtraRestartDistance,-0.5
;   toolChangeRetractionSpeed,600
;   allowThinWallGapFill,1
;   thinWallAllowedOverlapPercentage,10
;   horizontalSizeCompensation,0
G90
M82
G92 Z1.5 E0
G1 Z0.3
G1 X250 E10 F4800
G1 Z2
G92 E0
G1 E-10.0000 F4800
G1 Z0.450 F2000
; layer 1, Z = 0.45
T0
; tool H0.500 W1.000
; raft
G1 X140.252 Y139.936 F7800
G1 E-0.2000 F1440
G92 E0
G1 X140.411 Y139.785 E0.0456 F700
G1 X141.253 Y139.055 E0.2772
G1 X141.425 Y138.919 E0.3227
G1 X142.333 Y138.273 E0.5544
G1 X142.518 Y138.154 E0.6000
G1 X143.483 Y137.597 E0.8316
G1 X143.677 Y137.497 E0.8771
G1 X144.691 Y137.034 E1.1089
G1 X144.895 Y136.953 E1.1544
G1 X145.948 Y136.588 E1.3861
G1 X146.158 Y136.526 E1.4316
G1 X147.241 Y136.264 E1.6632
G1 X147.456 Y136.222 E1.7088
G1 X148.555 Y136.064 E1.9396
G1 X148.765 Y136.044 E1.9834
G1 X149.882 Y135.986 E2.2159
G1 X150.118 Y135.986 E2.2650
G1 X151.235 Y136.044 E2.4975
G1 X151.445 Y136.064 E2.5413
G1 X152.544 Y136.222 E2.7722
G1 X152.759 Y136.264 E2.8177
G1 X153.842 Y136.526 E3.0493
G1 X154.052 Y136.588 E3.0949
G1 X155.105 Y136.953 E3.3265
G1 X155.309 Y137.034 E3.3721
G1 X156.323 Y137.497 E3.6038
G1 X156.517 Y137.597 E3.6493
G1 X157.482 Y138.154 E3.8809
G1 X157.667 Y138.273 E3.9265
G1 X158.574 Y138.919 E4.1582
G1 X158.747 Y139.055 E4.2037
G1 X159.589 Y139.785 E4.4354
G1 X159.747 Y139.936 E4.4809
G1 X160.517 Y140.742 E4.7126
G1 X160.660 Y140.908 E4.7581
G1 X161.349 Y141.784 E4.9898
G1 X161.476 Y141.962 E5.0353
G1 X162.078 Y142.900 E5.2670
G1 X162.188 Y143.090 E5.3126
G1 X162.699 Y144.080 E5.5442
G1 X162.790 Y144.280 E5.5898
G1 X163.204 Y145.314 E5.8214
G1 X163.276 Y145.521 E5.8670
G1 X163.590 Y146.591 E6.0986
G1 X163.641 Y146.803 E6.1442
G1 X163.852 Y147.898 E6.3758
G1 X163.883 Y148.114 E6.4214
G1 X163.989 Y149.224 E6.6530
G1 X164.000 Y149.443 E6.6986
G1 X164.000 Y150.557 E6.9302
G1 X163.989 Y150.776 E6.9758
G1 X163.883 Y151.886 E7.2075
G1 X163.852 Y152.102 E7.2530
G1 X163.641 Y153.196 E7.4846
G1 X163.590 Y153.410 E7.5302
G1 X163.276 Y154.479 E7.7619
G1 X163.204 Y154.686 E7.8074
G1 X162.790 Y155.720 E8.0391
G1 X162.699 Y155.920 E8.0846
G1 X162.188 Y156.910 E8.3163
G1 X162.079 Y157.100 E8.3618
G1 X161.476 Y158.038 E8.5935
G1 X161.349 Y158.216 E8.6391
G1 X160.660 Y159.092 E8.8707
G1 X160.517 Y159.258 E8.9162
G1 X159.747 Y160.064 E9.1479
G1 X159.589 Y160.215 E9.1934
G1 X158.747 Y160.945 E9.4251
G1 X158.574 Y161.081 E9.4707
G1 X157.667 Y161.727 E9.7023
G1 X157.482 Y161.846 E9.7479
G1 X156.517 Y162.403 E9.9795
G1 X156.323 Y162.503 E10.0250
G1 X155.309 Y162.966 E10.2567
G1 X155.105 Y163.047 E10.3023
G1 X154.052 Y163.412 E10.5339
G1 X153.842 Y163.474 E10.5795
G1 X152.759 Y163.736 E10.8112
G1 X152.544 Y163.778 E10.8567
G1 X151.445 Y163.936 E11.0875
G1 X151.235 Y163.956 E11.1313
G1 X150.118 Y164.014 E11.3638
G1 X149.882 Y164.014 E11.4129
G1 X148.765 Y163.956 E11.6454
G1 X148.555 Y163.936 E11.6892
G1 X147.456 Y163.778 E11.9201
G1 X147.241 Y163.736 E11.9656
G1 X146.158 Y163.474 E12.1972
G1 X145.948 Y163.412 E12.2428
G1 X144.895 Y163.047 E12.4744
G1 X144.691 Y162.966 E12.5200
G1 X143.677 Y162.503 E12.7517
G1 X143.483 Y162.403 E12.7972
G1 X142.518 Y161.846 E13.0288
G1 X142.333 Y161.727 E13.0744
G1 X141.425 Y161.081 E13.3061
G1 X141.253 Y160.945 E13.3516
G1 X140.411 Y160.215 E13.5833
G1 X140.253 Y160.064 E13.6288
G1 X139.483 Y159.258 E13.8605
G1 X139.340 Y159.092 E13.9061
G1 X138.651 Y158.216 E14.1377
G1 X138.524 Y158.038 E14.1832
G1 X137.921 Y157.100 E14.4149
G1 X137.812 Y156.910 E14.4604
G1 X137.301 Y155.920 E14.6922
G1 X137.210 Y155.721 E14.7376
G1 X136.796 Y154.686 E14.9694
G1 X136.725 Y154.479 E15.0148
G1 X136.410 Y153.409 E15.2466
G1 X136.359 Y153.197 E15.2921
G1 X136.148 Y152.102 E15.5237
G1 X136.117 Y151.885 E15.5693
G1 X136.011 Y150.776 E15.8009
G1 X136.000 Y150.557 E15.8465
G1 X136.000 Y149.443 E16.0782
G1 X136.011 Y149.224 E16.1237
G1 X136.117 Y148.115 E16.3554
G1 X136.148 Y147.898 E16.4009
G1 X136.359 Y146.803 E16.6326
G1 X136.410 Y146.591 E16.6781
G1 X136.724 Y145.521 E16.9098
G1 X136.796 Y145.314 E16.9553
G1 X137.210 Y144.280 E17.1870
G1 X137.301 Y144.080 E17.2325
G1 X137.812 Y143.090 E17.4642
G1 X137.921 Y142.900 E17.5097
G1 X138.524 Y141.962 E17.7415
G1 X138.651 Y141.784 E17.7869
G1 X139.340 Y140.908 E18.0186
G1 X139.483 Y140.742 E18.0641
G1 X140.114 Y140.081 E18.2542
G1 X140.252 Y139.936 F700
G1 X143.396 Y138.571 F7800
G92 E0
G1 X156.604 Y138.571 E2.7458 F700
G1 X157.066 Y138.838 E2.8566
G1 X157.218 Y138.936 E2.8942
G1 X158.095 Y139.560 E3.1180
G1 X158.237 Y139.672 E3.1556
G1 X159.051 Y140.377 E3.3793
G1 X159.182 Y140.502 E3.4169
G1 X159.521 Y140.857 E3.5190
G1 X140.479 Y140.857 E7.4772
G1 X140.075 Y141.281 E7.5989
G1 X139.957 Y141.417 E7.6365
G1 X139.292 Y142.264 E7.8603
G1 X139.187 Y142.411 E7.8978
G1 X138.716 Y143.143 E8.0787
G1 X161.284 Y143.143 E12.7699
G1 X161.395 Y143.316 E12.8128
G1 X161.486 Y143.473 E12.8505
G1 X161.979 Y144.430 E13.0742
G1 X162.054 Y144.595 E13.1118
G1 X162.388 Y145.429 E13.2986
G1 X137.612 Y145.429 E18.4489
G1 X137.546 Y145.594 E18.4859
G1 X137.487 Y145.765 E18.5235
G1 X137.183 Y146.798 E18.7473
G1 X137.141 Y146.973 E18.7849
G1 X136.998 Y147.714 E18.9417
G1 X163.002 Y147.714 E24.3474
G1 X163.063 Y148.030 E24.4143
G1 X163.089 Y148.210 E24.4519
G1 X163.191 Y149.281 E24.6756
G1 X163.200 Y149.462 E24.7133
G1 X163.200 Y150.000 E24.8252
G1 X136.800 Y150.000 E30.3129
G1 X136.800 Y150.538 E30.4248
G1 X136.809 Y150.719 E30.4624
G1 X136.911 Y151.791 E30.6862
G1 X136.937 Y151.970 E30.7238
G1 X136.998 Y152.286 E30.7907
G1 X163.002 Y152.286 E36.1963
G1 X162.859 Y153.026 E36.3532
G1 X162.817 Y153.203 E36.3908
G1 X162.513 Y154.235 E36.6145
G1 X162.454 Y154.406 E36.6522
G1 X162.388 Y154.571 E36.6892
G1 X137.612 Y154.571 E41.8395
G1 X137.946 Y155.405 E42.0262
G1 X138.021 Y155.570 E42.0638
G1 X138.514 Y156.527 E42.2876
G1 X138.605 Y156.684 E42.3253
G1 X138.716 Y156.857 E42.3681
G1 X161.284 Y156.857 E47.0593
G1 X160.813 Y157.589 E47.2402
G1 X160.708 Y157.737 E47.2778
G1 X160.043 Y158.582 E47.5015
G1 X159.924 Y158.719 E47.5392
G1 X159.521 Y159.143 E47.6608
G1 X140.479 Y159.143 E51.6190
G1 X140.818 Y159.498 E51.7211
G1 X140.949 Y159.623 E51.7587
G1 X141.763 Y160.328 E51.9825
G1 X141.905 Y160.440 E52.0201
G1 X142.782 Y161.064 E52.2438
G1 X142.934 Y161.162 E52.2815
G1 X143.396 Y161.429 E52.3922
G1 X156.404 Y161.429 E55.0965
G1 X156.604 Y161.429 F700
G92 E0
G1 E-10.0000 F4800
; layer 2, Z = 0.95
; tool H0.500 W0.800
; raft
G1 X157.482 Y161.846 F7800
G1 Z0.950 F2000
G1 E-0.2000 F4800
G92 E0
G1 X156.517 Y162.403 E0.1853 F2000
G1 X156.323 Y162.503 E0.2217
G1 X155.309 Y162.966 E0.4071
G1 X155.105 Y163.047 E0.4435
G1 X154.052 Y163.412 E0.6288
G1 X153.842 Y163.474 E0.6653
G1 X152.759 Y163.736 E0.8506
G1 X152.544 Y163.778 E0.8870
G1 X151.445 Y163.936 E1.0717
G1 X151.235 Y163.956 E1.1067
G1 X150.118 Y164.014 E1.2927
G1 X149.882 Y164.014 E1.3320
G1 X148.765 Y163.956 E1.5180
G1 X148.555 Y163.936 E1.5531
G1 X147.456 Y163.778 E1.7377
G1 X147.241 Y163.736 E1.7741
G1 X146.158 Y163.474 E1.9595
G1 X145.948 Y163.412 E1.9959
G1 X144.895 Y163.047 E2.1812
G1 X144.691 Y162.966 E2.2177
G1 X143.677 Y162.503 E2.4030
G1 X143.483 Y162.403 E2.4394
G1 X142.518 Y161.846 E2.6248
G1 X142.333 Y161.727 E2.6612
G1 X141.425 Y161.081 E2.8466
G1 X141.253 Y160.945 E2.8830
G1 X140.411 Y160.215 E3.0683
G1 X140.253 Y160.064 E3.1047
G1 X139.483 Y159.258 E3.2901
G1 X139.340 Y159.092 E3.3265
G1 X138.651 Y158.216 E3.5118
G1 X138.524 Y158.038 E3.5483
G1 X137.921 Y157.100 E3.7336
G1 X137.812 Y156.910 E3.7700
G1 X137.301 Y155.920 E3.9554
G1 X137.210 Y155.721 E3.9918
G1 X136.796 Y154.686 E4.1772
G1 X136.725 Y154.479 E4.2135
G1 X136.410 Y153.409 E4.3989
G1 X136.359 Y153.197 E4.4353
G1 X136.148 Y152.102 E4.6206
G1 X136.117 Y151.885 E4.6571
G1 X136.011 Y150.776 E4.8424
G1 X136.000 Y150.557 E4.8789
G1 X136.000 Y149.443 E5.0642
G1 X136.011 Y149.224 E5.1006
G1 X136.117 Y148.115 E5.2860
G1 X136.148 Y147.898 E5.3224
G1 X136.359 Y146.803 E5.5077
G1 X136.410 Y146.591 E5.5441
G1 X136.724 Y145.521 E5.7295
G1 X136.796 Y145.314 E5.7659
G1 X137.210 Y144.280 E5.9512
G1 X137.301 Y144.080 E5.9877
G1 X137.812 Y143.090 E6.1730
G1 X137.921 Y142.900 E6.2095
G1 X138.524 Y141.962 E6.3948
G1 X138.651 Y141.784 E6.4312
G1 X139.340 Y140.908 E6.6166
G1 X139.483 Y140.742 E6.6530
G1 X140.252 Y139.936 E6.8383
G1 X140.411 Y139.785 E6.8748
G1 X141.253 Y139.055 E7.0601
G1 X141.425 Y138.919 E7.0965
G1 X142.333 Y138.273 E7.2818
G1 X142.518 Y138.154 E7.3183
G1 X143.483 Y137.597 E7.5036
G1 X143.677 Y137.497 E7.5400
G1 X144.691 Y137.034 E7.7254
G1 X144.895 Y136.953 E7.7618
G1 X145.948 Y136.588 E7.9472
G1 X146.158 Y136.526 E7.9836
G1 X147.241 Y136.264 E8.1689
G1 X147.456 Y136.222 E8.2053
G1 X148.555 Y136.064 E8.3900
G1 X148.765 Y136.044 E8.4250
G1 X149.882 Y135.986 E8.6111
G1 X150.118 Y135.986 E8.6503
G1 X151.235 Y136.044 E8.8363
G1 X151.445 Y136.064 E8.8714
G1 X152.544 Y136.222 E9.0561
G1 X152.759 Y136.264 E9.0925
G1 X153.842 Y136.526 E9.2778
G1 X154.052 Y136.588 E9.3142
G1 X155.105 Y136.953 E9.4996
G1 X155.309 Y137.034 E9.5360
G1 X156.323 Y137.497 E9.7213
G1 X156.517 Y137.597 E9.7578
G1 X157.482 Y138.154 E9.9431
G1 X157.667 Y138.273 E9.9796
G1 X158.574 Y138.919 E10.1649
G1 X158.747 Y139.055 E10.2013
G1 X159.589 Y139.785 E10.3866
G1 X159.747 Y139.936 E10.4230
G1 X160.517 Y140.742 E10.6084
G1 X160.660 Y140.908 E10.6448
G1 X161.349 Y141.784 E10.8302
G1 X161.476 Y141.962 E10.8666
G1 X162.078 Y142.900 E11.0519
G1 X162.188 Y143.090 E11.0884
G1 X162.699 Y144.080 E11.2737
G1 X162.790 Y144.280 E11.3101
G1 X163.204 Y145.314 E11.4955
G1 X163.276 Y145.521 E11.5319
G1 X163.590 Y146.591 E11.7172
G1 X163.641 Y146.803 E11.7537
G1 X163.852 Y147.898 E11.9390
G1 X163.883 Y148.114 E11.9754
G1 X163.989 Y149.224 E12.1607
G1 X164.000 Y149.443 E12.1972
G1 X164.000 Y150.557 E12.3825
G1 X163.989 Y150.776 E12.4190
G1 X163.883 Y151.886 E12.6043
G1 X163.852 Y152.102 E12.6407
G1 X163.641 Y153.196 E12.8260
G1 X163.590 Y153.410 E12.8625
G1 X163.276 Y154.479 E13.0478
G1 X163.204 Y154.686 E13.0842
G1 X162.790 Y155.720 E13.2696
G1 X162.699 Y155.920 E13.3060
G1 X162.188 Y156.910 E13.4914
G1 X162.079 Y157.100 E13.5278
G1 X161.476 Y158.038 E13.7131
G1 X161.349 Y158.216 E13.7496
G1 X160.660 Y159.092 E13.9349
G1 X160.517 Y159.258 E13.9713
G1 X159.747 Y160.064 E14.1567
G1 X159.589 Y160.215 E14.1931
G1 X158.747 Y160.945 E14.3784
G1 X158.574 Y161.081 E14.4149
G1 X157.667 Y161.727 E14.6002
G1 X157.650 Y161.737 E14.6034
G1 X157.482 Y161.846 F2000
G1 X156.604 Y161.429 F7800
G92 E0
G1 X143.396 Y161.429 E2.1966 F2000
G1 X142.934 Y161.162 E2.2852
G1 X142.782 Y161.064 E2.3154
